X: 393
T: Eileen Aroon
M:3/4
L:1/4
B:O'Neill's 393
N:"Slow."
N:2nd Setting
Z:Transcribed by Chris Falt, cfalt@trytel.com
K:Bb
(FGA)|(B>cd)|(FG)(A/2c/2)|B3|
(FGA)|(B>cd)|(F/4B/4)z/2 (G/4B/4)z/2 (A/4c/4)z/2|({c}B2)||
(ddd)|(e>G)G|ddc|(B>G).F|
f(e/2c/2)(B/2A/2)|(B>cd)|(F/4B/4)z/2 (G/4B/4)z/2 (A/4c/4)z/2|({c}B2)||


